X:10
T:Larry Marr
C:Traditional
L:1/4
M:4/4
K:Edor
 e>ee B | d<d d2 | Be>ee | B d3 |
Be<ee | B/c/ d(3(c/d/c/) B | (3(B/c/B/) BAG | FE3 |
E/F/ G2 F | G/F/ EB (B | B) e>d d/e/ | f e3 |
e/f/ gef | dedd/e/ | fe3 :|
%%textfont Times-Roman 18
%%begintext
In Frisco town there lived a man whose name was Larry Marr
And in the days of the Cape Horn trade, Oh he used his big stone jar
---
%%endtext
%%textfont Times-Roman 20
%%begintext
In the old Virginia lowlands, lowlands low
In the old Virginia lowlands, low
%%endtext
%%textfont Times-Roman 18
%%begintext
---
In Larry's place, down on the coast where lived old Larry Marr
The Missus and Larry would prime the beer, in the old five gallon jar
---
Now a hell ship she be short of hands, of full red-blooded tars
The Missus and Larry would prime the beer, in the old five gallon jar
---
Shellbacks and farmers just the same, strolled into Larry Marr's
And sailed away, around Cape Horn, helped by the five gallon jar
---
In Frisco town their names is know, and in the Cape Horn bars
And the stuff they sell out to old Jack, in the old five gallon jar
---
From the Barbary coast stay clear me boys, and from old Larry Marr's
Or else damn soon Shanghai'd you'll be, by the old five gallon jar
---
Shanghai'd away on a skys'l ship around Cape Horn so far
Goodbye to all the boys and girl, and to Larry's five gallon jar
%%endtext

%%newpage
%%textfont Times-Roman 26
%%begintext
Barrett's Privateers
%%endtext
%%textfont Times-Roman 18
%%begintext
Oh the year was seventeen seventy eight / How I wish I was in Sherbrooke now
When a letter of mark came from the king / To the scummiest vessel I'd ever seen

God damn them all, I was told / We'd cruise the seas for American gold
We'd fire no guns, shed no tears  / Now I'm a broken man on a Halifax pier
The last of Barretts privateers

Oh, Elcid Barrett cried the town  /
For twenty brave men, all fisherman who / Would make for him the Antelope's crew

Oh, the Antelope sloop was a sickening sight /
She'd a list to port and sails in rags / And a cook in the scuppers with the staggers and jags

On the king's birthday we put to sea /
It was ninety one days to Montego Bay / We were pumping like madmen all the way

On the ninety sixth day we sailed again /
When a bloody great Yankee hove in sight / With our cracked four pounders we made to fight

Oh, the Yankee lay low down with gold /
She was broad and fat and loose in stays / But to catch her took the Antelope two whole days

At length we stood two cables away /
Our cracked four pounders made an awful din / But with one fat ball the Yank stove us in

Oh, the Antelope shook and pitched on her side /
Barrett was smashed like a bowl of eggs / And the main truck carried off both me legs

So here I lay in my twenty third year /
Well it's been six years since I sailed away / And I just made Halifax yesterday
%%endtext
